packages/kaspersky-hexa-ui-icons/src/iconsSVGs/16/StackedChartBar.svg

<svg width="16" height="16" viewBox="0 0 16 16" fill="none" xmlns="http://www.w3.org/2000/svg">
<path d="M3.05338 1.61491C3.05395 1.25592 2.7634 0.964444 2.40442 0.963868C2.04543 0.963294 1.75395 1.25384 1.75338 1.61283L1.73291 14.3851C1.73234 14.7441 2.02288 15.0356 2.38187 15.0361C2.74085 15.0367 3.03233 14.7462 3.03291 14.3872L3.05338 1.61491Z" fill="black"/>
<path fill-rule="evenodd" clip-rule="evenodd" d="M5.82984 1.08777C5.02903 1.08777 4.37984 1.73696 4.37984 2.53777V3.74153C4.37984 4.54234 5.02903 5.19153 5.82984 5.19153H12.817C13.6178 5.19153 14.267 4.54234 14.267 3.74153V2.53777C14.267 1.73696 13.6178 1.08777 12.817 1.08777H5.82984ZM5.67984 2.53777C5.67984 2.45493 5.747 2.38777 5.82984 2.38777H7.3501V3.89153H5.82984C5.747 3.89153 5.67984 3.82437 5.67984 3.74153V2.53777ZM8.6501 3.89153H12.817C12.8998 3.89153 12.967 3.82437 12.967 3.74153V2.53777C12.967 2.45493 12.8998 2.38777 12.817 2.38777H8.6501V3.89153Z" fill="black"/>
<path fill-rule="evenodd" clip-rule="evenodd" d="M4.37984 7.46013C4.37984 6.65932 5.02903 6.01013 5.82984 6.01013H9.19767C9.99849 6.01013 10.6477 6.65932 10.6477 7.46013V8.66389C10.6477 9.4647 9.99849 10.1139 9.19767 10.1139H5.82984C5.02903 10.1139 4.37984 9.4647 4.37984 8.66389V7.46013ZM5.82984 7.31013C5.747 7.31013 5.67984 7.37729 5.67984 7.46013V8.66389C5.67984 8.74673 5.747 8.81389 5.82984 8.81389H9.19767C9.28052 8.81389 9.34767 8.74673 9.34767 8.66389V7.46013C9.34767 7.37729 9.28052 7.31013 9.19767 7.31013H5.82984Z" fill="black"/>
<path fill-rule="evenodd" clip-rule="evenodd" d="M5.82984 10.9324C5.02903 10.9324 4.37984 11.5816 4.37984 12.3824V13.5861C4.37984 14.3869 5.02903 15.0361 5.82984 15.0361H11.8096C12.6104 15.0361 13.2596 14.3869 13.2596 13.5861V12.3824C13.2596 11.5816 12.6104 10.9324 11.8096 10.9324H5.82984ZM5.67984 12.3824C5.67984 12.2995 5.747 12.2324 5.82984 12.2324H9.4978V13.7361H5.82984C5.747 13.7361 5.67984 13.669 5.67984 13.5861V12.3824ZM10.7978 13.7361V12.2324H11.8096C11.8924 12.2324 11.9596 12.2995 11.9596 12.3824V13.5861C11.9596 13.669 11.8924 13.7361 11.8096 13.7361H10.7978Z" fill="black"/>
</svg>

<svg xmlns="http://www.w3.org/2000/svg" width="16" height="16" fill="none" viewBox="0 0 16 16"><path fill="#000" fill-rule="evenodd" d="M3.0532 1.6148a.65.65 0 1 0-1.3-.002L1.7329 14.385a.65.65 0 0 0 1.3.002zm2.7765-.5271c-.8008 0-1.45.6491-1.45 1.45v1.2037c0 .8008.6492 1.45 1.45 1.45h6.9871c.8008 0 1.45-.6492 1.45-1.45V2.5377c0-.8009-.6492-1.45-1.45-1.45zm-.15 1.45a.15.15 0 0 1 .15-.15H7.35v1.5037H5.8297a.15.15 0 0 1-.15-.15zM8.65 3.8914h4.1668a.15.15 0 0 0 .15-.15V2.5377a.15.15 0 0 0-.15-.15H8.65zM4.3797 7.46c0-.8008.6492-1.45 1.45-1.45h3.3679c.8008 0 1.4499.6492 1.4499 1.45v1.2038c0 .8008-.6491 1.45-1.45 1.45H5.8298c-.8008 0-1.45-.6492-1.45-1.45zm1.45-.15a.15.15 0 0 0-.15.15v1.2038a.15.15 0 0 0 .15.15h3.3679a.15.15 0 0 0 .15-.15V7.46a.15.15 0 0 0-.15-.15zm0 3.6222c-.8008 0-1.45.6492-1.45 1.45v1.2038c0 .8008.6492 1.45 1.45 1.45h5.9797c.8008 0 1.45-.6492 1.45-1.45v-1.2038c0-.8008-.6492-1.45-1.45-1.45zm-.15 1.45a.15.15 0 0 1 .15-.15h3.668v1.5038h-3.668a.15.15 0 0 1-.15-.15zm5.118 1.3538v-1.5038h1.0117a.15.15 0 0 1 .15.15v1.2038a.15.15 0 0 1-.15.15z"/></svg>
